X:149
T: Gruenes Gras, gruenes Gras unter meinen Fuessen,
N: D0235A
O: Europa, Mitteleuropa, Deutschland, Harz, St. Andreasberg
N: in der dritten Zeile rhythmisch korrigiert; Inzipit = Variante; Keine
N: Variante zum folgenden und zum vorigen Lied !! (DVA - Signatur 235 d)
R: Kinder - Lied, Tanzlied
M: 2/4
L: 1/16
K: D
 |  |  | A2G2F4 | A2G2F4 | A2A2B2A2 | A4G4 |
G2G2E2F2 | G2G2E4 | G2G2A3G | G4F4 |
A2G2F4 | A2G2F4 | A2A2B2A2 | A4G4 |
G2G2E2F2 | G2G2E4 | G2G2A3G | G4F4 |
F2G2A4 | F2G2A6A2 | d2B2A6
A2 | B3AG6E2 | B3AF6
A2 | A6G2E2G2 | B6A2F2
D2 | D2E2F2G2 | A4A4 | B3BB2B2 | A6
A2 | G3GG2G2 | F4F4 | A3AA2A2 | D4z4

@@@ Tune index: 2671
